icons/shield-chevron-left-outline.svg

<svg xmlns="http://www.w3.org/2000/svg" width="24" height="24" viewBox="0 0 24 24">
  <path d="M12,1 C15.5169906,1 18.3742467,1.71431401 20.5547002,3.16794971 C20.8328989,3.35341548 21,3.66564681 21,4 L21,4 L21,12.9096249 C20.9981658,16.3441397 19.0497159,19.5919666 16.0272136,21.1044272 L16.0272136,21.1044272 L12.4472136,22.8944272 C12.1656861,23.0351909 11.8343139,23.0351909 11.5527864,22.8944272 L11.5527864,22.8944272 L7.97250014,21.104284 C4.95028406,19.5919666 3.00183418,16.3441397 3,12.9090909 L3,12.9090909 L3,4 C3,3.66564681 3.16710114,3.35341548 3.4452998,3.16794971 C5.62575334,1.71431401 8.48300939,1 12,1 Z M11.9999999,3 C9.15029309,3 6.85199016,3.50672557 5.09245014,4.5016552 L5.09245014,4.5016552 L4.99999986,4.555 L4.99999986,12.9085569 C5.00138724,15.5066311 6.43129904,17.976644 8.636365,19.1941391 L8.636365,19.1941391 L8.8672136,19.3155728 L11.9999999,20.881 L15.1325001,19.315716 C17.3905248,18.1858001 18.8956579,15.7647258 18.9947875,13.1773026 L18.9947875,13.1773026 L18.9999999,12.9090909 L18.9999999,4.556 L18.9075499,4.5016552 C17.2406172,3.55909028 15.0901411,3.0546919 12.4453733,3.00420832 L12.4453733,3.00420832 Z M12.3871006,8.20970461 C12.7793918,7.90467972 13.3466228,7.93240926 13.7071068,8.29289322 L13.7071068,8.29289322 L13.7902954,8.38710056 C14.0953203,8.77939176 14.0675907,9.34662282 13.7071068,9.70710678 L13.7071068,9.70710678 L11.415,12 L13.7071068,14.2928932 L13.7902954,14.3871006 C14.0953203,14.7793918 14.0675907,15.3466228 13.7071068,15.7071068 C13.3165825,16.0976311 12.6834175,16.0976311 12.2928932,15.7071068 L12.2928932,15.7071068 L9.29289322,12.7071068 L9.20970461,12.6128994 C8.90467972,12.2206082 8.93240926,11.6533772 9.29289322,11.2928932 L9.29289322,11.2928932 L12.2928932,8.29289322 Z"/>
</svg>

<svg xmlns="http://www.w3.org/2000/svg" viewBox="0 0 24 24">
  <path d="M12 1c3.52 0 6.37.71 8.55 2.17A1 1 0 0 1 21 4v8.91a9.23 9.23 0 0 1-4.97 8.2l-3.58 1.78a1 1 0 0 1-.9 0L7.97 21.1A9.23 9.23 0 0 1 3 12.9V4a1 1 0 0 1 .45-.83C5.63 1.7 8.48 1 12 1zm0 2c-2.85 0-5.15.5-6.9 1.5l-.1.05v8.36c0 2.6 1.43 5.07 3.64 6.28l.23.13L12 20.88l3.13-1.56A7.22 7.22 0 0 0 19 13.18l.01-.27V4.56l-.1-.06c-1.66-.94-3.81-1.45-6.45-1.5zm.39 5.21a1 1 0 0 1 1.32.08l.08.1a1 1 0 0 1-.08 1.32L11.4 12l2.3 2.3.08.09a1 1 0 0 1-1.5 1.32l-3-3-.08-.1a1 1 0 0 1 .08-1.32l3-3z"/>
</svg>
